!!!COM: Bach, Johann Sebastian
!!!OTL: 183. Nun freut euch, lieben Christen, g'mein
!!!ONM: No. 183
!!!OCL: Erk
!!!SCA: BWV 388
!!!YOE: Riemenschneider, Albert
!!!OPR: 371 Harmonized Chorales and 69 Chorale Melodies with Figured Bass
!!!OPT: Bach Chorale Harmonizations
**harm	**root	**kern	**kern	**kern	**kern
!	!	!bass	!tenor	!alto	!sprno
*Iorgan	*Iorgan	*Iorgan	*Iorgan	*Iorgan	*Iorgan
*>[A,A,B]	*>[A,A,B]	*>[A,A,B]	*>[A,A,B]	*>[A,A,B]	*>[A,A,B]
*>norep[A,B]	*>norep[A,B]	*>norep[A,B]	*>norep[A,B]	*>norep[A,B]	*>norep[A,B]
*>A	*>A	*>A	*>A	*>A	*>A
*k[f#c#]	*k[f#c#]	*k[f#c#]	*k[f#c#]	*k[f#c#]	*k[f#c#]
*D:	*D:	*D:	*D:	*D:	*D:
*met(c)	*met(c)	*met(c)	*met(c)	*met(c)	*met(c)
*M4/4	*M4/4	*M4/4	*M4/4	*M4/4	*M4/4
*MM60	*MM60	*MM60	*MM60	*MM60	*MM60
I	4GG	8DD	8F#	4A	4d
.	.	8EE	8E	.	.
=1	=1	=1	=1	=1	=1
Ib	4GG	8FF#	4D	4A	4d
.	.	8GG	.	.	.
V	4DD	8AA	4C#	4E	4A
.	.	8GG	.	.	.
Ib	4GG	4FF#	[4D	4A	4d
viib	4FF#	4EE	8D]	4e	4g
.	.	.	8C#	.	.
=2	=2	=2	=2	=2	=2
I	4GG	8DD	4.D	4A	4f#
.	.	8FF#	.	.	.
V	4DD	4AA	.	8.A	4e
.	.	.	8C#	.	.
.	.	.	.	16G	.
I;	4GG;	4DD;	4AA;	4F#;	4d;
vi	4EE	4BB	4D	8F#	4d
.	.	.	.	8G#	.
=3	=3	=3	=3	=3	=3
V	8DD	4AA	8C#	8A	8e
viioD7c/ii	8GG#	.	8D#	8c	8f#
ii	4AA	4EE	4E	8B	4g
.	.	.	.	8c#	.
Ib	4GG	8FF#	8AA	4d	4f#
.	.	8GG	8BB	.	.
V	4DD	4AA	4C#	8A	4e
.	.	.	.	16E	.
.	.	.	.	16F#	.
=4	=4	=4	=4	=4	=4
IV	4CC	8GG	4D	2G	4B
.	.	8FF#	.	.	.
viib	4FF#	4EE	4E	.	4c#
I;	4GG;	4DD;	4AA;	4F#;	4d;
=:|!	=:|!	=:|!	=:|!	=:|!	=:|!
*>B	*>B	*>B	*>B	*>B	*>B
!! Continuing.
I	4GG	8D	4F#	4A	4d
.	.	8C#	.	.	.
=5	=5	=5	=5	=5	=5
IVb	8CC	8BB	8B	8d	4g
V7b	8DD	8C#	8A	[8e	.
I	4GG	[4D	4A	8e]	4f#
.	.	.	.	16d	.
.	.	.	.	16c#	.
V7d/V	4AA	8D]	4G#	4B	4e
.	.	16E	.	.	.
.	.	16D	.	.	.
Vb	8DD	8C#	4A	8e	4a
iii	8BB	8F#	.	8c#	.
=6	=6	=6	=6	=6	=6
!!linebreak: 2
vi7b	4EE	4D	8F#	8B	4a
.	.	.	8BB	[8d	.
V7/V	4AA	8E	4E	8d]	4g#
.	.	8EE	.	16c#	.
.	.	.	.	16B	.
V;	4DD;	4AA;	4E;	4c#;	4a;
Ib	4GG	4FF#	[4A	4d	4a
=7	=7	=7	=7	=7	=7
IV	4CC	8GG	8A]	4d	4b
.	.	8AA	16G	.	.
.	.	.	16F#	.	.
IVb	4CC	4BB	8G	4d	4g
.	.	.	8B	.	.
Vb	8DD	8C#	8A	8e	4.a
V7	8DD	8AA	8G	8c#	.
vi7	8EE	8BB	8F#	8d	.
vii	8FF#	8C#	8E	[8e	8g
=8	=8	=8	=8	=8	=8
I	4GG	4D	16F#	8e]	4f#
.	.	.	16G	.	.
.	.	.	4A	4d	.
V	4DD	4AA	.	.	4e
.	.	.	8G	8c#	.
vi;	4EE;	4BB;	4F#;	4B;	4d;
vi	4EE	4BB	4D	[4B	4f#
=9	=9	=9	=9	=9	=9
Vb	4DD	4C#	4E	8B]	4e
.	.	.	.	16A	.
.	.	.	.	16G	.
I	4GG	8D	8D	4F#	4A
.	.	8C#	8E	.	.
vi	4EE	4BB	4F#	8B	4d
.	.	.	.	8A	.
ii	4AA	4EE	4E	8B	4g
.	.	.	.	8c#	.
=10	=10	=10	=10	=10	=10
Ib	4GG	8FF#	[4A	4.d	4f#
.	.	8GG	.	.	.
V	4DD	4AA	8.A]	.	4e
.	.	.	.	8c#	.
.	.	.	16G	.	.
I;	4GG;	4DD;	4F#;	4A;	4d;
==	==	==	==	==	==
*-	*-	*-	*-	*-	*-
!!!CDT: 1685/3//-1750/7/28
!!!OCY: Deutschland
!!!AGN: chorale
!!!AST: Baroque
!!!AIN: vox
!!!YOY: 1941
!!!PPP: New York; London
!!!PPR: G. Schirmer
!!!ENC: David Huron
!!!EED: David Huron
!!!YEN: United States of America
!!!YER: 1992
!!!YEC: Copyright 1992 David Huron
!!!YEM: Rights to all derivative electronic formats reserved.
!!!YER: March 20, 1996
!!!AMT: simple quadruple
!!!EEV: 1.1
!!chor2scor: -l 2 -s 0.6 -o %b.pmx
